svg/emoji_u1f9ef.svg

<?xml version="1.0" encoding="utf-8"?>
<!-- Generator: Adobe Illustrator 25.2.3, SVG Export Plug-In . SVG Version: 6.00 Build 0)  -->
<svg version="1.1" id="Layer_3" xmlns="http://www.w3.org/2000/svg" xmlns:xlink="http://www.w3.org/1999/xlink" x="0px" y="0px"
	 viewBox="0 0 128 128" style="enable-background:new 0 0 128 128;" xml:space="preserve">
<g>
	<g>
		<path style="fill:none;stroke:#424242;stroke-width:5.9729;stroke-miterlimit:10;" d="M59.59,21.74c0,0-5.42-0.19-8.92,0.18
			c-8.19,0.87-15.2,5.89-14.05,26.17c1.22,21.45,4.09,59.55,4.09,59.55"/>
		<path style="fill:#DB3427;" d="M72.87,38.76v-9.17H59.21v9.17c0,1.93-3.1,2.94-5.1,3.9c-7.32,3.54-10.39,9.35-10.39,17.28v53.69
			c0,2.24,2.96,10.36,22.31,10.36c19.35,0,22.31-8.12,22.31-10.36V59.95c0-8.46-3.74-14.59-12.08-17.97
			C74.35,41.19,72.87,40.69,72.87,38.76z"/>
		<path style="fill:#BA2626;" d="M59.21,33.95c0,2.96,1.72,6.24,6.83,6.24s6.83-3.28,6.83-6.24L59.21,33.95z"/>
		<path style="fill:#FAFAFA;" d="M52.77,54.9v28.11c0,0.44,0.32,0.82,0.75,0.89c8.68,1.49,16.71,1.57,25.04,0.01
			c0.43-0.08,0.74-0.46,0.74-0.89V54.88c0-0.54-0.47-0.95-1-0.89c-7.72,0.94-16.74,1.12-24.51,0.03
			C53.25,53.94,52.77,54.36,52.77,54.9z"/>
		<g>
			
				<radialGradient id="SVGID_1_" cx="65.4404" cy="81.7339" r="21.6193" gradientTransform="matrix(0.9775 0 0 0.9469 3.0041 4.1031)" gradientUnits="userSpaceOnUse">
				<stop  offset="0.3995" style="stop-color:#FF9800"/>
				<stop  offset="0.6616" style="stop-color:#FF6D00"/>
				<stop  offset="0.9715" style="stop-color:#F44336"/>
			</radialGradient>
			<path style="fill:url(#SVGID_1_);" d="M60.22,65.44c-0.46,1.23-0.96,2.99,0.54,4.25c0,0,0.16-3.35,3.49-5.66
				c1.81-1.25,1.2-3,0.81-3.68c-0.37-0.63-1.13-1.21-1.53-1.6c-0.23-0.23-0.05-0.62,0.28-0.6c2.02,0.09,5.29,0.63,6.68,4.01
				c0.61,1.48,0.68,2.63,0.16,4.37c-0.29,0.97-1.18,3.48,0.91,4.05c1.05,0.28,1.53-0.98,1.76-1.58c0.1-0.25,0.43-0.31,0.61-0.11
				c1.8,1.99,1.96,4.33,1.58,6.34c-0.72,3.89-4.79,6.73-8.84,6.73c-5.05,0-9.08-2.8-10.12-7.87c-0.42-2.05-0.21-6.09,3.05-8.95
				C59.86,64.92,60.33,65.13,60.22,65.44z"/>
			<path style="fill:#FFEE58;" d="M68.46,71.6c-1.86-2.32-1.03-4.97-0.57-6.03c0.06-0.14-0.1-0.27-0.23-0.18
				c-0.8,0.53-2.44,1.77-3.21,3.52c-1.03,2.36-0.96,3.52-0.35,4.93c0.37,0.85-0.06,1.03-0.27,1.06c-0.21,0.03-0.4-0.1-0.55-0.24
				c-0.44-0.41-0.76-0.94-0.91-1.51c-0.03-0.12-0.2-0.16-0.28-0.05c-0.57,0.77-0.87,2-0.89,2.87c-0.04,2.69,2.25,4.87,5.03,4.87
				c3.5,0,6.05-3.75,4.04-6.89C69.69,73.05,69.14,72.45,68.46,71.6z"/>
		</g>
		<path style="fill:#FF7555;" d="M66.91,44.29c0.88,0.01,1.86,0.47,1.14,1.82c-0.69,1.29-2.64,4.51-9.81,4.33
			c-1.77-0.05-5.72-0.33-6.66-2.49c-0.98-2.27,4.69-5.77,8-4.6C63.03,44.55,63.91,44.27,66.91,44.29z"/>
		<path style="fill:#9E9E9E;" d="M60.93,25.33c-1.81,0.04-5.11,0.13-7.38,0.23c-0.74,0.03-1.37-0.53-1.42-1.27l-0.43-4.99
			c-0.05-0.76,0.53-1.42,1.3-1.46c2.42-0.12,5.84-0.2,7.73-0.25c0.77-0.02,1.39,0.6,1.39,1.37l0.14,5
			C62.26,24.71,61.67,25.32,60.93,25.33z"/>
		<path style="fill:#616161;" d="M34.96,40.89c0.13-3.57,0.84-7.63,1.8-10.06c0.69-1.75,2.36-5.13,4.04-6.57
			c2.43-2.08,5.01-3.32,7.52-3.54c2.14-0.19,2.3,1.4-0.55,2.41c-2.39,0.84-4.14,1.59-5.81,3.86c-2.34,3.19-3.67,7.89-4.04,11.01
			c-0.17,1.46-0.53,10.67-2.36,8.81C34.63,45.86,34.9,42.35,34.96,40.89z"/>
		<g>
			<path style="fill:#424242;" d="M60.68,21.84c-2.59-3.1-1.25-6.41,0.52-7.25L85.12,4.05c0.29-0.13,0.64,0.01,0.74,0.31
				c1.15,3.33-0.43,7.04-3.71,8.49l-19.7,8.69C61.86,21.79,63.27,24.95,60.68,21.84z"/>
		</g>
		<path style="fill:#424242;" d="M88.43,27.81c-0.07-0.03-25.97-11.95-25.97-11.95l-0.61,1.54l9.07,4.17
			c-0.12,0.18-0.23,0.36-0.33,0.56c-1.04,2.3,0.35,4.05,2.81,4.92c2.64,0.93,9.51,4.04,11.1,4.57c1.88,0.62,2.84-0.02,3.65-0.94
			C88.79,29.94,89.75,28.42,88.43,27.81z"/>
		<path style="fill:#757575;" d="M76.11,8.86c0.03,0.04,0.05,0.1,0.04,0.15c-0.01,0.1-0.07,0.19-0.13,0.27
			c-0.46,0.56-1.11,0.98-1.66,1.44c-0.56,0.48-1.01,1.07-1.49,1.63c-1.67,1.94-4.47,2.6-6.78,3.53c-1.58,0.64-3.16,1.27-4.74,1.91
			c-0.53,0.21-1.26,0.4-1.23-0.48c0.03-0.78,0.63-1.82,2.31-2.54c2.15-0.94,4.78-2.11,6.93-3.05c2.16-0.95,4.36-1.82,6.46-2.88
			c0.05-0.02,0.09-0.05,0.15-0.04C76.03,8.79,76.08,8.82,76.11,8.86z"/>
		<g>
			<circle style="fill:#DB3427;" cx="66.04" cy="27.85" r="10.11"/>
			<circle style="fill:#FAFAFA;" cx="66.06" cy="27.85" r="6.49"/>
			<path style="fill:#212121;" d="M66.06,21.54c-0.38,0-1.44,5.74-1.44,6.2c0,0.75,0.65,1.35,1.44,1.35c0.8,0,1.44-0.61,1.44-1.35
				C67.5,27.28,66.44,21.54,66.06,21.54z"/>
		</g>
		<path style="fill:#FF7555;" d="M61.78,22.01c-1.78,1.27-2.65,3.77-2.7,4.74c-0.05,0.98-0.45,1.88-1.26,1.93
			c-0.93,0.05-1.07-1.33-1.06-1.72c0.07-2.59,1.21-4.9,3.01-6.41c0.83-0.69,2.37-1.21,3.01-0.37
			C63.28,20.85,62.38,21.58,61.78,22.01z"/>
		<g>
			<path style="fill:#424242;" d="M65.96,93.41c-11.64,0-20.63-1.85-22.59-2.26c0,0-0.62-0.27-2.1-0.32l-0.49-5.59
				c0,0,0.19-0.02,1.22-0.02c1.02,0,1.92,0.34,1.92,0.34c0.09,0.02,9.93,2.28,22.04,2.28s21.46-2.08,21.55-2.1l0.55-0.14
				c0.42-0.09,0.83,0.17,0.87,0.56l0.19,4.38c0.03,0.32-0.19,0.61-0.53,0.68l-0.33,0.08C87.85,91.39,78.86,93.41,65.96,93.41z"/>
		</g>
		<path style="fill:#9E9E9E;" d="M35.94,99.01l-0.49-7.22c-0.02-0.24,0.19-0.42,0.42-0.4c3.25,0.35,5.51-0.15,6.41-0.41
			c0.23-0.07,0.46,0.1,0.48,0.34l0.49,7.2c0.01,0.15-0.06,0.29-0.2,0.36c-0.75,0.39-3.44,1.55-6.85,0.46
			C36.06,99.31,35.95,99.17,35.94,99.01z"/>
	</g>
</g>
</svg>

<?xml version="1.0" encoding="UTF-8" standalone="no"?>
<!DOCTYPE svg PUBLIC "-//W3C//DTD SVG 1.1//EN" "http://www.w3.org/Graphics/SVG/1.1/DTD/svg11.dtd">
<svg width="100%" height="100%" viewBox="0 0 128 128" version="1.1" xmlns="http://www.w3.org/2000/svg" xmlns:xlink="http://www.w3.org/1999/xlink" xml:space="preserve" xmlns:serif="http://www.serif.com/" style="fill-rule:evenodd;clip-rule:evenodd;stroke-miterlimit:10;">
    <path id="path11477" d="M59.59,21.74C59.59,21.74 54.17,21.55 50.67,21.92C42.48,22.79 35.47,27.81 36.62,48.09C37.84,69.54 40.71,107.64 40.71,107.64" style="fill:none;fill-rule:nonzero;stroke:rgb(62,82,89);stroke-width:5.97px;"/>
    <path id="path11479" d="M72.87,38.76L72.87,29.59L59.21,29.59L59.21,38.76C59.21,40.69 56.11,41.7 54.11,42.66C46.79,46.2 43.72,52.01 43.72,59.94L43.72,113.63C43.72,115.87 46.68,123.99 66.03,123.99C85.38,123.99 88.34,115.87 88.34,113.63L88.34,59.95C88.34,51.49 84.6,45.36 76.26,41.98C74.35,41.19 72.87,40.69 72.87,38.76Z" style="fill:rgb(219,68,55);fill-rule:nonzero;"/>
    <path id="path11481" d="M59.21,33.95C59.21,36.91 60.93,40.19 66.04,40.19C71.15,40.19 72.87,36.91 72.87,33.95L59.21,33.95Z" style="fill:rgb(155,24,24);fill-rule:nonzero;"/>
    <path id="path11483" d="M52.77,54.9L52.77,83.01C52.77,83.45 53.09,83.83 53.52,83.9C62.2,85.39 70.23,85.47 78.56,83.91C78.99,83.83 79.3,83.45 79.3,83.02L79.3,54.88C79.3,54.34 78.83,53.93 78.3,53.99C70.58,54.93 61.56,55.11 53.79,54.02C53.25,53.94 52.77,54.36 52.77,54.9Z" style="fill:rgb(250,250,250);fill-rule:nonzero;"/>
    <path id="path11500" d="M60.93,25.33C59.12,25.37 55.82,25.46 53.55,25.56C52.81,25.59 52.18,25.03 52.13,24.29L51.7,19.3C51.65,18.54 52.23,17.88 53,17.84C55.42,17.72 58.84,17.64 60.73,17.59C61.5,17.57 62.12,18.19 62.12,18.96L62.26,23.96C62.26,24.71 61.67,25.32 60.93,25.33Z" style="fill:rgb(147,177,187);fill-rule:nonzero;"/>
    <g id="g11506">
        <path id="path11504" d="M60.68,21.84C58.09,18.74 59.43,15.43 61.2,14.59L85.12,4.05C85.41,3.92 85.76,4.06 85.86,4.36C87.01,7.69 85.43,11.4 82.15,12.85L62.45,21.54C61.86,21.79 63.27,24.95 60.68,21.84Z" style="fill:rgb(62,82,89);fill-rule:nonzero;"/>
    </g>
    <path id="path11508" d="M88.43,27.81C88.36,27.78 62.46,15.86 62.46,15.86L61.85,17.4L70.92,21.57C70.8,21.75 70.69,21.93 70.59,22.13C69.55,24.43 70.94,26.18 73.4,27.05C76.04,27.98 82.91,31.09 84.5,31.62C86.38,32.24 87.34,31.6 88.15,30.68C88.79,29.94 89.75,28.42 88.43,27.81Z" style="fill:rgb(62,82,89);fill-rule:nonzero;"/>
    <g id="g11518">
        <circle id="circle11512" cx="66.04" cy="27.85" r="10.11" style="fill:rgb(219,68,55);"/>
        <circle id="circle11514" cx="66.06" cy="27.85" r="6.49" style="fill:rgb(250,250,250);"/>
        <path id="path11516" d="M66.06,21.54C65.68,21.54 64.62,27.28 64.62,27.74C64.62,28.49 65.27,29.09 66.06,29.09C66.86,29.09 67.5,28.48 67.5,27.74C67.5,27.28 66.44,21.54 66.06,21.54Z" style="fill:rgb(33,33,33);fill-rule:nonzero;"/>
    </g>
    <g id="g11524">
        <path id="path11522" d="M65.96,93.41C54.32,93.41 45.33,91.56 43.37,91.15C43.37,91.15 42.75,90.88 41.27,90.83L40.78,85.24C40.78,85.24 40.97,85.22 42,85.22C43.02,85.22 43.92,85.56 43.92,85.56C44.01,85.58 53.85,87.84 65.96,87.84C78.07,87.84 87.42,85.76 87.51,85.74L88.06,85.6C88.48,85.51 88.89,85.77 88.93,86.16L89.12,90.54C89.15,90.86 88.93,91.15 88.59,91.22L88.26,91.3C87.85,91.39 78.86,93.41 65.96,93.41Z" style="fill:rgb(43,59,64);fill-rule:nonzero;"/>
    </g>
    <path id="path11526" d="M35.94,99.01L35.45,91.79C35.43,91.55 35.64,91.37 35.87,91.39C39.12,91.74 41.38,91.24 42.28,90.98C42.51,90.91 42.74,91.08 42.76,91.32L43.25,98.52C43.26,98.67 43.19,98.81 43.05,98.88C42.3,99.27 39.61,100.43 36.2,99.34C36.06,99.31 35.95,99.17 35.94,99.01Z" style="fill:rgb(147,177,187);fill-rule:nonzero;"/>
    <g id="g11658" transform="matrix(0.195312,0,0,0.195312,53.3843,57.5212)">
        <path id="path11654" d="M98.59,51.16C94.36,52.08 90.71,54.44 89,58.51C87.97,60.98 86.53,67.36 82.58,65.71C80.69,64.93 80.72,62.22 80.94,60.53C81.41,57.06 82.97,53.89 84.04,50.59C85.14,47.17 86.09,43.73 86.77,40.19C89.05,28.47 88.42,14.97 80.13,5.6C78.73,4 75.2,0.3 72.87,0.22C71.43,0.18 72.85,1.88 73.25,2.45C74.06,3.62 74.74,4.89 75.26,6.22C81.39,21.86 66.28,33.77 56.35,43.04C51.59,47.49 47.79,52.21 44.37,57.72C44.03,58.25 43.28,60.03 42.31,59.66C41.16,59.22 41.04,56.59 40.68,55.61C40,53.73 38.95,51.68 37.6,50.21C34.99,47.35 31.34,45.42 27.39,45.68C27.24,45.69 26.81,45.76 26.28,45.88C25.45,46.06 23.23,46.35 23.83,47.69C24.14,48.38 25.05,48.32 25.7,48.51C34.04,51.07 33.85,59.81 32.5,66.83C30.06,79.61 23.3,91.69 28.1,104.83C33.76,120.32 51.48,129.99 67.56,127.33C71.95,126.61 77.01,125.19 80.95,123.07C85.14,120.81 89.73,117.72 93,114.24C97.21,109.77 99.89,104.04 100.68,97.97C101.61,90.95 99.37,84.33 97.33,77.7C94.87,69.7 92.04,56.64 102.26,52.73C102.76,52.53 103.76,52.38 104.11,51.85C105.41,49.91 99.17,51.04 98.59,51.16Z" style="fill:rgb(237,108,48);fill-rule:nonzero;"/>
        <path id="path11656" d="M68.13,106.07C70.25,107.85 73.22,106.98 75.22,105.46C76.29,104.65 77.21,103.61 77.81,102.4C78.06,101.88 78.35,101.22 78.35,100.63C78.35,99.84 77.88,99.06 78.08,98.25C79.76,97.92 81.84,102.75 82.05,103.87C83.73,112.7 75.41,119.98 67.38,121.39C53.83,123.76 46.04,111.89 47.6,101.35C48.57,94.79 52.97,90.28 57.45,85.78C61.16,82.05 64.6,78.85 65.8,74C66.01,73.14 65.96,71.82 65.71,70.97C65.5,70.24 65.1,69.57 65.08,68.78C65.02,67.12 66.63,69.29 67,69.71C71.46,74.74 72.73,82.17 71.54,88.67C70.77,92.87 67.77,95.87 66.72,99.89C66.11,102.18 66.17,104.41 68.13,106.07Z" style="fill:rgb(252,194,27);fill-rule:nonzero;"/>
    </g>
</svg>
